X:1
T:Title
%%score [ ( 1 2 ) ( 3 4 ) ] { ( 5 6 ) | ( 7 8 ) }
L:1/8
Q:1/4=120
M:4/4
K:A
V:1 treble nm="Midi_74"
V:2 treble 
V:3 bass nm="Midi_74"
V:4 bass 
V:5 treble nm="Org."
V:6 treble 
V:7 bass 
V:8 bass 
V:1
 (E6 c2) | (B2 A2) (G2 F2) |{F} E8 || (A6 B2) | c4 (d2 e2) | f4 (d2 B2) |{A} G8 || (A6 e2) | %8
 (d2 c2) (B2 A2) |{A} (G6 F2) || (E6 ^E2) | (F2 G2) (A2 cB) |"^John Camidge\n(1790-1859)" A4 G4 | %13
{B} A8 |] %14
V:2
 (C6 E2) | F4 D4 |{D} C8 || E8 | E4 E4 | F4 (D2 F2) | E8 || E8 | F4 F4 | (E6 C2) ||{C} E8 | D4 D4 | %12
 C4 B,4 | A,8 |] %14
V:3
 (A,6 C2) | D4 A,4 | A,8 || (A,6 G,2) | A,4 (B,2 C2) | C4 B,4 |{C} B,8 || A,8 | A,4 B,4 | %9
{C} (B,6 G,2) || A,8 | A,4 F,4 | E,4 D4 | C8 |] %14
V:4
 A,,8 | A,,4 A,,4 | A,,8 || (C,6 B,,2) | A,,4 A,,4 | ^A,,4 (B,,2 D,2) | E,8 || C,8 | D,4 D,4 | %9
 (E,6 D,2) || C,8 | D,4 D,4 | E,4 E,4 | A,,8 |] %14
V:5
 E6 [Ec]2 | B2 A2 G2 F2 |{F} E8 || A6 B2 | c4 d2 e2 | f4 d2 B2 |{[CA]} G8 || A6 e2 | d2 c2 B2 A2 | %9
{[CA]} G6 F2 || E6 ^E2 | F2 G2 A2 cB | A4 G4 | [CEA]8 |] %14
V:6
 C8 | [DF]4 D4 | C8 || [A,E]6 [DEG]2 | [CEA]4 B2 c2 | [Fc]4 F2 D2 | B,8 || E8 | F4 F4 | B,6 G,2 || %10
 A,8 | [A,D]4 [DF]4 | [CE]4 [B,DE]4 | x8 |] %14
V:7
"^Discrepancy: bar 6 beat 1 alto voice is E in original." A,8 | x8 | x4 x4 || x8 | x8 | x4 F,4 | %6
 x4 x4 || x8 | x8 | x8 || x8 | x8 | x8 | x8 |] %14
V:8
 A,,8 | [A,,A,]4 [A,,A,]4 | [A,,A,]8 || C,6 B,,2 | A,,4 [A,,A,]4 | [^A,,^A,]4 B,,2 D,2 | E,8 || %7
 [C,C]8 | [D,D]4 [D,,D,]4 | [E,,E,]6 [D,,D,]2 || [C,,C,]8 | [D,,D,]4 [D,,D,]4 | [E,,E,]4 [E,,E,]4 | %13
 [A,,E,A,]8 |] %14

